src/16/actions/view-calendar-workweek.svg

<svg xmlns="http://www.w3.org/2000/svg" width="16" height="16"><defs><style id="current-color-scheme" type="text/css"></style></defs><path d="M3 1C.75 1 1 3 1 3v12h14V3c0-2-2-2-2-2H3zm0 2h10v10H3V3zm7 1v2h2V4h-2zM4 7v2h2V7H4zm3 0v2h2V7H7zm3 0v2h2V7h-2zm-6 3v2h2v-2H4z" fill="currentColor" color="#565656"/></svg>

<svg xmlns="http://www.w3.org/2000/svg" width="16" height="16" viewBox="0 0 16 16">
 <defs>
  <style id="current-color-scheme" type="text/css">
   .ColorScheme-Text { color:#565656; } .ColorScheme-Highlight { color:#5294e2; }
  </style>
 </defs>
 <path style="fill:currentColor" class="ColorScheme-Text" d="M 3 1 C 0.75 1 1 3 1 3 L 1 15 L 15 15 L 15 3 C 15 1 13 1 13 1 L 3 1 z M 3 3 L 13 3 L 13 13 L 3 13 L 3 10.5 L 3 3 z M 10 4 L 10 6 L 12 6 L 12 4 L 10 4 z M 4 7 L 4 9 L 6 9 L 6 7 L 4 7 z M 7 7 L 7 9 L 9 9 L 9 7 L 7 7 z M 10 7 L 10 9 L 12 9 L 12 7 L 10 7 z M 4 10 L 4 12 L 6 12 L 6 10 L 4 10 z"/>
</svg>
